X:165
M:C
L:1/8
K:G
|: dBdB dBdB | cAcA cAcA | dBdB dBdBc | BdcB "tr"B2 A2 :|
|: gdcB gdcB | ecBA ecBA | gdcB gdcB | AcDF G2 [G,2G2 :|

